X:653
T: Xingfu shenghuo lehehe
N: C2178
O: China, Hunan Lianyuan
S: I, 499]
R: Shange]
M: 2/4
L: 1/16
K: C
d2e2d2e2 | c2e2d4 | c4A2z2
A2d2c2d2 | d2A2c2A2 | G4A4
G2A2c2c2 | d2A2G2G2 | A2c2d2A2 | c2A2G2G2 | c4A2z2 | c4A2z2

